X: 21867
T: Kiss Her Under The Coverlet
R: slip jig
M: 9/8
K: Adorian
|:G2f edc B2G|BAB G2B cAF|G2f edc B2G|AcA F2A cAF:|
|:G2B AcA B2G|BAB G2B cAF|G2B AcA B2G|AcA F2A cAF:|
|:G2f ege f2d|ege f2d cAF|G2f ege f2d|AcA F2A cAF:|

